X: 34464
T: Ridee
R: three-two
M: 3/2
K: Bminor
ffB ffe|fgf edc|Bcd efe|dce dcB:|
fBc dB2|gBc dB2|ABc ded|cdd cB2|
fBc dB2|gBc dB2|ABc ded|cdc BB2||

